X:194
T: WO DAS KLARE WASSER FLIESSET
N: E0777
O: Europa, Mitteleuropa, Deutschland, Hessen, Nassau, Witzenhausen
R: Abschieds - Lied, Wander - Lied, Liebe
M: 4/4
L: 1/8
K: F
 | F2FGA3A | G2E2F2C2 |
A2ABc3c | B2GBA4 |
c2c_ed4 | d2dfe4 |
f3cedc2 | d3AcBA2 |
F2FAc2c2 | B2GBA2z2

